X:188
T:Billy Boy (a)
M:6/8
L:1/8
K:Eb
G2A B2B|A2G F3|G2F E3|F2D E3|
G2A B2B|=A2B c2B|=A2B F3-|F3 B2B|
c2B c2d|(e2d)e2c|B2G (AG)F|(E2D) C2B,|
E2E GFE|B2B c2e|G2E F2D|E6||
